reader/components/icons/assets/thumbnails.svg

<svg viewBox="0 0 24 24" xmlns="http://www.w3.org/2000/svg">
  <path d="M10.5 9C10.5 9.828 9.82875 10.5 9 10.5H1.5C0.67125 10.5 0 9.828 0 9V1.5C0 0.672 0.67125 0 1.5 0H9C9.82875 0 10.5 0.672 10.5 1.5V9ZM24 1.5C24 0.672 23.3288 0 22.5 0H15C14.1713 0 13.5 0.672 13.5 1.5V9C13.5 9.828 14.1713 10.5 15 10.5H22.5C23.3288 10.5 24 9.828 24 9V1.5ZM10.5 15C10.5 14.172 9.82875 13.5 9 13.5H1.5C0.67125 13.5 0 14.172 0 15V22.5C0 23.3288 0.67125 24 1.5 24H9C9.82875 24 10.5 23.3288 10.5 22.5V15ZM24 15C24 14.172 23.3288 13.5 22.5 13.5H15C14.1713 13.5 13.5 14.172 13.5 15V22.5C13.5 23.3288 14.1713 24 15 24H22.5C23.3288 24 24 23.3288 24 22.5V15Z"/>
</svg>

<svg viewBox="0 0 24 24" xmlns="http://www.w3.org/2000/svg"><path d="M10.5 9A1.5 1.5 0 019 10.5H1.5A1.5 1.5 0 010 9V1.5A1.5 1.5 0 011.5 0H9a1.5 1.5 0 011.5 1.5V9zM24 1.5A1.5 1.5 0 0022.5 0H15a1.5 1.5 0 00-1.5 1.5V9a1.5 1.5 0 001.5 1.5h7.5A1.5 1.5 0 0024 9V1.5zM10.5 15A1.5 1.5 0 009 13.5H1.5A1.5 1.5 0 000 15v7.5A1.5 1.5 0 001.5 24H9a1.5 1.5 0 001.5-1.5V15zM24 15a1.5 1.5 0 00-1.5-1.5H15a1.5 1.5 0 00-1.5 1.5v7.5A1.5 1.5 0 0015 24h7.5a1.5 1.5 0 001.5-1.5V15z"/></svg>
